img/sber.svg

<svg width="285" height="58" viewBox="0 0 285 58" fill="none" xmlns="http://www.w3.org/2000/svg">
<g clip-path="url(#clip0_2_42)">
<path d="M275.225 11.2401L265.501 22.0682V11.2401H258.464V38.5747H265.501V27.0664L275.909 38.5747H285L272.197 24.2525L284.073 11.2401H275.225Z" fill="white"/>
<path d="M246.056 21.4347H236.332V11.2401H229.291V38.5747H236.332V27.7971H246.056V38.5747H253.093V11.2401H246.056V21.4347Z" fill="white"/>
<path d="M41.7838 26.0403C41.6156 31.1396 40.9546 32.1579 38.0678 32.1579V38.5747H39.1435C46.337 38.5747 48.0659 34.8863 48.3319 26.6816L48.6252 17.5986H55.3689V38.5863H62.4098V11.2401H42.2728L41.7838 26.0403Z" fill="white"/>
<path d="M79.8986 19.5419H74.8135V11.2401H67.7726V38.5747H79.9925C87.6631 38.5747 90.4013 33.6231 90.4013 28.9631C90.4013 22.9427 86.5874 19.5419 79.8947 19.5419M79.3549 32.5543H74.8135V25.6128H79.3588C81.8035 25.6128 83.2704 26.6816 83.2704 28.9631C83.2704 31.4389 81.8544 32.5543 79.3588 32.5543" fill="white"/>
<path d="M113.323 10.6066V0.458622H106.282V10.6066C98.2245 11.2712 92.7991 16.969 92.7991 24.8744C92.7991 32.7797 98.2245 38.5203 106.286 39.2004V49.4961H113.327V39.2082C121.389 38.5747 126.814 32.8458 126.814 24.8744C126.814 16.9029 121.389 11.2323 113.323 10.5988M106.282 32.5971C102.371 32.0607 99.9299 29.1496 99.9299 24.8744C99.9299 20.5991 102.375 17.688 106.282 17.1555V32.5971ZM113.323 32.5971V17.1633C117.235 17.6958 119.695 20.5991 119.695 24.8744C119.695 29.1496 117.254 32.0607 113.343 32.5971" fill="white"/>
<path d="M153.202 30.1757V20.9877C153.202 14.2872 148.899 10.0625 141.671 10.0625C134.192 10.0625 130.233 14.5282 129.893 19.1921H137.028C137.27 18.1699 138.346 16.421 141.671 16.421C144.409 16.421 146.165 17.6841 146.165 20.9877H139.175C132.917 20.9877 129.208 24.2408 129.208 29.6782C129.208 35.3682 133.269 39.2548 139.128 39.2548C143.431 39.2548 145.809 37.2377 146.85 35.7102C147.777 37.5564 149.83 38.5747 152.518 38.5747H154.962V32.2589C153.691 32.2589 153.202 31.6759 153.202 30.1718M146.161 28.3762C146.161 31.5321 143.912 33.3277 140.982 33.3277C138.44 33.3277 136.437 32.4066 136.437 29.686C136.437 26.9654 138.635 26.5767 140.54 26.5767H146.161V28.3762Z" fill="white"/>
<path d="M183.357 15.1228H175.487V7.40401H193.715V0.458622H168.109V38.5747H183.365C191.818 38.5747 196.664 34.4005 196.664 26.7283C196.664 19.4953 191.825 15.1228 183.365 15.1228M183.02 31.6798H175.487V21.7651H183.013C186.924 21.7651 189.122 23.5607 189.122 26.7166C189.122 29.9697 186.924 31.6682 183.013 31.6682" fill="white"/>
<path d="M223.576 30.1757V20.9877C223.576 14.2872 219.273 10.0625 212.041 10.0625C204.577 10.0741 200.607 14.5398 200.275 19.2038H207.409C207.656 18.1816 208.731 16.4326 212.052 16.4326C214.79 16.4326 216.551 17.6958 216.551 20.9994H209.549C203.29 20.9994 199.578 24.2525 199.578 29.6899C199.578 35.3682 203.642 39.2548 209.502 39.2548C213.805 39.2548 216.179 37.2377 217.22 35.7102C218.151 37.5564 220.204 38.5747 222.891 38.5747H225.332V32.2589C224.065 32.2589 223.576 31.6759 223.576 30.1718M216.535 28.3762C216.535 31.5321 214.286 33.3277 211.352 33.3277C208.814 33.3277 206.807 32.4066 206.807 29.686C206.807 26.9654 209.009 26.5767 210.914 26.5767H216.535V28.3762Z" fill="white"/>
<path d="M37.6297 50.2307H0V58H37.6297V50.2307Z" fill="white"/>
<path d="M25.6563 5.69001C24.5806 2.51076 23.3445 0 19.1082 0C14.872 0 13.5538 2.50298 12.4272 5.69001L0.782349 38.5747H8.50387L11.1911 30.7587H26.0553L28.5548 38.5747H36.7692L25.6563 5.69001ZM13.4403 24.1553L18.7171 8.55056H18.9127L23.8961 24.1553H13.4403Z" fill="white"/>
</g>
<defs>
<clipPath id="clip0_2_42">
<rect width="285" height="58" fill="white"/>
</clipPath>
</defs>
</svg>

<svg xmlns="http://www.w3.org/2000/svg" width="285" height="58" fill="none"><g fill="#fff" clip-path="url(#a)"><path d="m275.225 11.24-9.724 10.828V11.24h-7.037v27.335h7.037V27.066l10.408 11.509H285l-12.803-14.323 11.876-13.012h-8.848ZM246.056 21.435h-9.724V11.24h-7.041v27.335h7.041V27.797h9.724v10.778h7.037V11.24h-7.037v10.195ZM41.784 26.04c-.168 5.1-.83 6.118-3.716 6.118v6.417h1.076c7.193 0 8.922-3.689 9.188-11.893l.293-9.083h6.744v20.987h7.04V11.24H42.274l-.49 14.8ZM79.899 19.542h-5.085V11.24h-7.041v27.335h12.22c7.67 0 10.408-4.952 10.408-9.612 0-6.02-3.814-9.421-10.506-9.421m-.54 13.012h-4.541v-6.941h4.545c2.445 0 3.911 1.069 3.911 3.35 0 2.476-1.416 3.591-3.911 3.591M113.323 10.607V.459h-7.041v10.148c-8.057.664-13.483 6.362-13.483 14.267 0 7.906 5.425 13.646 13.487 14.326v10.296h7.041V39.208c8.062-.633 13.487-6.362 13.487-14.334 0-7.971-5.425-13.642-13.491-14.275m-7.041 21.998c-3.911-.536-6.352-3.447-6.352-7.723 0-4.275 2.445-7.186 6.352-7.718v15.441Zm7.041 0V17.163c3.912.533 6.372 3.436 6.372 7.711 0 4.276-2.441 7.187-6.352 7.723M153.202 30.176v-9.188c0-6.7-4.303-10.925-11.531-10.925-7.479 0-11.438 4.465-11.778 9.13h7.135c.242-1.023 1.318-2.772 4.643-2.772 2.738 0 4.494 1.263 4.494 4.567h-6.99c-6.258 0-9.967 3.253-9.967 8.69 0 5.69 4.061 9.577 9.92 9.577 4.303 0 6.681-2.017 7.722-3.545.927 1.846 2.98 2.865 5.668 2.865h2.444v-6.316c-1.271 0-1.76-.583-1.76-2.087m-7.041-1.796c0 3.156-2.249 4.952-5.179 4.952-2.542 0-4.545-.921-4.545-3.642 0-2.72 2.198-3.11 4.103-3.11h5.621v1.8ZM183.357 15.123h-7.87V7.404h18.228V.459h-25.606v38.116h15.256c8.453 0 13.299-4.175 13.299-11.847 0-7.233-4.839-11.605-13.299-11.605m-.345 16.557h-7.533v-9.915h7.526c3.911 0 6.109 1.796 6.109 4.952 0 3.253-2.198 4.951-6.109 4.951M223.576 30.176v-9.188c0-6.7-4.303-10.925-11.535-10.925-7.464.011-11.434 4.477-11.766 9.14h7.134c.247-1.021 1.322-2.77 4.643-2.77 2.738 0 4.499 1.263 4.499 4.566h-7.002c-6.259 0-9.971 3.254-9.971 8.69 0 5.68 4.064 9.566 9.924 9.566 4.303 0 6.677-2.017 7.718-3.545.931 1.846 2.984 2.865 5.671 2.865h2.441v-6.316c-1.267 0-1.756-.583-1.756-2.087m-7.041-1.796c0 3.156-2.249 4.952-5.183 4.952-2.538 0-4.545-.921-4.545-3.642 0-2.72 2.202-3.11 4.107-3.11h5.621v1.8ZM37.63 50.23H0V58h37.63v-7.77ZM25.656 5.69C24.581 2.51 23.345 0 19.108 0c-4.236 0-5.554 2.503-6.68 5.69L.781 38.575h7.722l2.687-7.816h14.864l2.5 7.816h8.214L25.656 5.69ZM13.44 24.155l5.277-15.604h.196l4.983 15.604H13.44Z"/></g><defs><clipPath id="a"><path fill="#fff" d="M0 0h285v58H0z"/></clipPath></defs></svg>
